X:12
T:The Tall Order
R:reel
C:Paul S. Cranford
O:Cape Breton Island
S:http://www.cranfordpub.com
D:currently unrecorded
B:currently unpublished in book form
Z:psc, (re-formatted,updated 9/17/04)
N:
H:                                                        copyrights Cranford Publications, SOCAN
L:1/8
Q:333
M:C|
K:G
D|E2 Ac BG (3(Bcd)|{d}e2 Ae dGBd|ge e/e/e aged|egfd e2 eF|
E2 Ac BG (3(Bcd)|{d}e2 Ae dGBd|ge e/e/e dBAG|Ad d/d/d G3:|
|:B|d2 GB dG (3(Bcd)|e(a ~a2) bage|dG  (3(Bcd) edBd|eAaA bage|
d2 GB dG (3(Bcd)|e(a ~a2) bagf|ge e/e/e dBAG|Ad d/d/d G3:|
